build/images/icons/config.svg

<svg width="17" height="17" viewBox="0 0 17 17" xmlns="http://www.w3.org/2000/svg">
  <path fill-rule="evenodd" clip-rule="evenodd" d="M14.8155 5.882L16.422 6.4175C16.7682 6.53444 17.0009 6.85957 17 7.225V9.775C16.9973 10.1373 16.7653 10.4581 16.422 10.574L14.8155 11.1095L15.572 12.6225C15.7333 12.9493 15.6683 13.3425 15.4105 13.6L13.6 15.4105C13.3455 15.6606 12.9618 15.7251 12.6395 15.572L11.1265 14.8155L10.591 16.422C10.4741 16.7682 10.1489 17.0009 9.7835 17H7.2335C6.86807 17.0009 6.54294 16.7682 6.426 16.422L5.8905 14.8155L4.3775 15.572C4.05074 15.7333 3.65754 15.6683 3.4 15.4105L1.5895 13.6C1.33557 13.344 1.27084 12.9556 1.428 12.631L2.1845 11.118L0.578003 10.5825C0.231788 10.4656 -0.000940439 10.1404 2.85694e-06 9.775V7.225C0.00269368 6.8627 0.234741 6.54193 0.578003 6.426L2.1845 5.8905L1.428 4.3775C1.26675 4.05074 1.33171 3.65754 1.5895 3.4L3.4 1.5895C3.65604 1.33557 4.04445 1.27084 4.369 1.428L5.882 2.1845L6.4175 0.578003C6.53444 0.231788 6.85957 -0.000940439 7.225 2.85694e-06H9.775C10.1373 0.00269368 10.4581 0.234741 10.574 0.578003L11.1095 2.1845L12.6225 1.428C12.9493 1.26675 13.3425 1.33171 13.6 1.5895L15.4105 3.4C15.6644 3.65604 15.7292 4.04445 15.572 4.369L14.8155 5.882ZM14.28 9.503L15.3 9.163V7.8115L14.28 7.4715C13.8123 7.31625 13.4351 6.96573 13.2459 6.51073C13.0567 6.05574 13.0743 5.54105 13.294 5.1L13.804 4.1565L12.869 3.2215L11.9 3.706C11.4566 3.93497 10.9349 3.95752 10.4733 3.76766C10.0118 3.5778 9.65699 3.19473 9.503 2.72L9.163 1.7H7.837L7.497 2.72C7.34302 3.19473 6.98821 3.5778 6.52666 3.76766C6.06511 3.95752 5.54345 3.93497 5.1 3.706L4.1565 3.2215L3.2215 4.1565L3.706 5.1C3.93497 5.54345 3.95752 6.06511 3.76766 6.52666C3.5778 6.98821 3.19473 7.34302 2.72 7.497L1.7 7.837V9.163L2.72 9.503C3.19473 9.65699 3.5778 10.0118 3.76766 10.4733C3.95752 10.9349 3.93497 11.4566 3.706 11.9L3.196 12.8435L4.131 13.7785L5.1 13.294C5.54345 13.065 6.06511 13.0425 6.52666 13.2323C6.98821 13.4222 7.34302 13.8053 7.497 14.28L7.837 15.3H9.1885L9.5285 14.28C9.68375 13.8123 10.0343 13.4351 10.4893 13.2459C10.9443 13.0567 11.459 13.0743 11.9 13.294L12.8435 13.804L13.7785 12.869L13.294 11.9C13.065 11.4566 13.0425 10.9349 13.2323 10.4733C13.4222 10.0118 13.8053 9.65699 14.28 9.503ZM8.5 5.1C6.62223 5.1 5.1 6.62223 5.1 8.5C5.1 10.3778 6.62223 11.9 8.5 11.9C10.3778 11.9 11.9 10.3778 11.9 8.5C11.9 7.59827 11.5418 6.73346 10.9042 6.09584C10.2665 5.45822 9.40174 5.1 8.5 5.1ZM6.8 8.5C6.8 9.43889 7.56112 10.2 8.5 10.2C9.43889 10.2 10.2 9.43889 10.2 8.5C10.2 7.56112 9.43889 6.8 8.5 6.8C7.56112 6.8 6.8 7.56112 6.8 8.5Z"/>
</svg>

<svg width="17" height="17" xmlns="http://www.w3.org/2000/svg"><path fill-rule="evenodd" clip-rule="evenodd" d="M14.816 5.882l1.606.536a.85.85 0 01.578.807v2.55a.85.85 0 01-.578.799l-1.607.536.757 1.513a.85.85 0 01-.161.977L13.6 15.41a.85.85 0 01-.96.162l-1.514-.756-.535 1.606a.85.85 0 01-.807.578h-2.55a.85.85 0 01-.808-.578l-.535-1.607-1.513.757a.85.85 0 01-.978-.161L1.59 13.6a.85.85 0 01-.162-.969l.756-1.513-1.606-.536A.85.85 0 010 9.775v-2.55a.85.85 0 01.578-.799l1.607-.535-.757-1.513a.85.85 0 01.161-.978L3.4 1.59a.85.85 0 01.969-.162l1.513.756.536-1.606A.85.85 0 017.225 0h2.55a.85.85 0 01.799.578l.536 1.607 1.513-.757a.85.85 0 01.977.161L15.41 3.4a.85.85 0 01.162.969l-.756 1.513zm-.536 3.621l1.02-.34V7.811l-1.02-.34a1.7 1.7 0 01-.986-2.371l.51-.943-.935-.936-.969.485a1.7 1.7 0 01-2.397-.986l-.34-1.02H7.837l-.34 1.02a1.7 1.7 0 01-2.397.986l-.943-.485-.936.936.485.943a1.7 1.7 0 01-.986 2.397l-1.02.34v1.326l1.02.34a1.7 1.7 0 01.986 2.397l-.51.944.935.934.969-.484a1.7 1.7 0 012.397.986l.34 1.02h1.351l.34-1.02a1.7 1.7 0 012.372-.986l.944.51.934-.935-.484-.969a1.7 1.7 0 01.986-2.397zM8.5 5.1a3.4 3.4 0 100 6.8 3.4 3.4 0 000-6.8zM6.8 8.5a1.7 1.7 0 103.4 0 1.7 1.7 0 00-3.4 0z"/></svg>
